Newaita-dark/apps/64/goobox.svg

<svg height="64" viewBox="0 0 64 64" width="64" xmlns="http://www.w3.org/2000/svg" xmlns:xlink="http://www.w3.org/1999/xlink"><linearGradient id="a"><stop offset="0" stop-opacity=".313726"/><stop offset=".222222" stop-opacity=".27451"/><stop offset="1" stop-opacity="0"/></linearGradient><radialGradient id="b" cx="450.908936" cy="189.579361" gradientTransform="matrix(.00000035 -.156265 -.281277 -.0000002 102.276735 127.190659)" gradientUnits="userSpaceOnUse" r="21.166656" xlink:href="#a"/><radialGradient id="c" cx="450.908936" cy="189.579361" gradientTransform="matrix(-.00000035 .156265 .281277 .0000002 -25.540237 -15.054964)" gradientUnits="userSpaceOnUse" r="21.166656" xlink:href="#a"/><radialGradient id="d" cx="450.908936" cy="189.579361" gradientTransform="matrix(-.00000035 -.156265 .281277 -.0000002 -25.540237 127.190659)" gradientUnits="userSpaceOnUse" r="21.166656" xlink:href="#a"/><radialGradient id="e" cx="450.908936" cy="189.579361" gradientTransform="matrix(.00000035 .156265 -.281277 .0000002 102.276733 -15.054965)" gradientUnits="userSpaceOnUse" r="21.166656" xlink:href="#a"/><linearGradient id="f" gradientTransform="matrix(.0267201 0 0 .125012 24.930772 26.877567)" gradientUnits="userSpaceOnUse" x1="255.323059" x2="255.323044" y1="233.5" y2="254.666656"><stop offset="0" stop-opacity=".27451"/><stop offset="1" stop-opacity="0"/></linearGradient><linearGradient id="g" gradientUnits="userSpaceOnUse" x1="31.753048" x2="31.753048" y1="5.79220799994" y2="56.067868"><stop offset="0" stop-color="#e0e0e0"/><stop offset="1" stop-color="#bdbdbd"/></linearGradient><linearGradient id="h" gradientUnits="userSpaceOnUse" x1="960.000112" x2="960.000112" y1="1255.11822698163" y2="615.118112"><stop offset="0" stop-color="#f5f5f5"/><stop offset="1" stop-color="#e0e0e0"/></linearGradient><linearGradient id="i" gradientUnits="userSpaceOnUse" x1="52.93077849322" x2="52.92173299994" y1="16.37593000006" y2="56.06724000006"><stop offset="0" stop-color="#81c784"/><stop offset="1" stop-color="#66bb6a"/></linearGradient><path d="m49.613281 56.066406h5.292969v-2.644531h-5.292969zm0 0" fill="url(#b)"/><path d="m27.121094 56.066406h-5.289063v2.648438h5.289063zm0 0" fill="url(#c)"/><path d="m27.121094 56.066406h-5.289063v-2.644531h5.289063zm0 0" fill="url(#d)"/><path d="m49.613281 56.066406h5.292969v2.648438h-5.292969zm0 0" fill="url(#e)"/><path d="m27.121094 55.40625h22.492187v3.308594h-22.492187zm0 0" fill="url(#f)"/><path d="m31.753906 5.792969c-13.925781 0-25.140625 11.210937-25.140625 25.136719 0 13.925781 11.214844 25.136718 25.140625 25.136718 13.925782 0 25.136719-11.210937 25.136719-25.136718 0-13.925782-11.210937-25.136719-25.136719-25.136719zm0 19.84375c2.929688 0 5.292969 2.363281 5.292969 5.292969 0 2.933593-2.363281 5.292968-5.292969 5.292968-2.933594 0-5.292968-2.359375-5.292968-5.292968 0-2.929688 2.359374-5.292969 5.292968-5.292969zm0 0" fill="url(#g)"/><path d="m31.753906 56.066406c-13.925781 0-25.140625-11.210937-25.140625-25.136718 0-.082032.003907-.164063.003907-.246094.128906 13.8125 11.292968 24.890625 25.136718 24.890625s25.003906-11.078125 25.136719-24.890625v.246094c0 13.925781-11.210937 25.136718-25.136719 25.136718zm0 0" fill-opacity=".196078"/><path d="m31.753906 5.792969c-13.925781 0-25.140625 11.210937-25.140625 25.136719 0 .082031.003907.164062.003907.246093.128906-13.8125 11.292968-24.890625 25.136718-24.890625s25.003906 11.078125 25.136719 24.890625c0-.082031 0-.164062 0-.246093 0-13.925782-11.210937-25.136719-25.136719-25.136719zm0 0" fill="#fff" fill-opacity=".588235"/><path d="m31.753906 5.605469c-14.027344 0-25.328125 11.296875-25.328125 25.324219 0 14.027343 11.300781 25.324218 25.328125 25.324218s25.324219-11.296875 25.324219-25.324218c0-14.027344-11.296875-25.324219-25.324219-25.324219zm0 .375c13.824219 0 24.949219 11.125 24.949219 24.949219 0 13.824218-11.125 24.949218-24.949219 24.949218-13.828125 0-24.953125-11.125-24.953125-24.949218 0-13.824219 11.125-24.949219 24.953125-24.949219zm0 0" fill="#212121"/><path d="m14.847656 14.023438c-1.410156 1.441406-2.632812 3.054687-3.640625 4.800781-1.007812 1.746093-1.792969 3.609375-2.335937 5.550781l5.355468 1.4375c.820313-2.964844 2.386719-5.675781 4.542969-7.871094zm4.914063 4.914062c-1.980469 2.023438-3.414063 4.511719-4.171875 7.238281l11.40625 3.058594c.222656-.722656.605468-1.386719 1.117187-1.941406zm16.792969 13.226562c-.109376.359376-.261719.707032-.453126 1.035157-.1875.324219-.410156.628906-.667968.90625l8.359375 8.359375c1.980469-2.023438 3.414062-4.515625 4.167969-7.246094zm12.773437 3.421876c-.824219 2.964843-2.386719 5.675781-4.542969 7.875l3.917969 3.914062c1.410156-1.441406 2.632813-3.054688 3.640625-4.800781 1.011719-1.746094 1.792969-3.609375 2.335938-5.550781zm0 0" fill="#fff" fill-opacity=".588235"/><path d="m960.026483 615.059407c-177.266546 0-320.048194 142.781648-320.048194 320.048194s142.781648 320.048194 320.048194 320.048194 319.930095-142.781648 319.930095-320.048194-142.663549-320.048194-319.930095-320.048194zm0 160.024097c88.574223 0 160.024097 71.449874 160.024097 160.024097 0 88.692323-71.449874 160.024097-160.024097 160.024097-88.692323 0-160.024097-71.331774-160.024097-160.024097 0-88.574223 71.331774-160.024097 160.024097-160.024097zm0 0" fill="url(#h)" stroke="#333" stroke-linecap="round" stroke-width="11.338583" transform="scale(.0330761)"/><path d="m52.921875 22.992188c-1.464844 0-2.644531 1.179687-2.644531 2.644531v.664062c0 .074219 0 .144531.007812.21875v3.085938h-.007812v14.109375c-1.558594-.558594-3.363282-.878906-5.292969-.878906-5.863281 0-10.585937 2.953124-10.585937 6.617187s4.722656 6.613281 10.585937 6.613281 10.582031-2.949218 10.582031-6.613281v-16.980469c.007813-.074218.011719-.144531.011719-.21875v-.664062h-.011719v-5.953125c0-1.464844-1.179687-2.644531-2.644531-2.644531zm0 0" fill="url(#i)"/><path d="m52.921875 22.992188c-1.464844 0-2.644531 1.179687-2.644531 2.644531v.664062c0-1.46875 1.179687-2.648437 2.644531-2.648437s2.644531 1.179687 2.644531 2.648437v-.664062c0-1.464844-1.179687-2.644531-2.644531-2.644531zm-2.644531 6.613281v.664062h.007812v-.664062zm5.289062 1.984375v.664062h.011719v-.664062zm-10.582031 11.246094c-5.863281 0-10.585937 2.953124-10.585937 6.617187 0 .109375.003906.21875.011718.328125.277344-3.507812 4.886719-6.28125 10.574219-6.28125 1.929687 0 3.734375.316406 5.292969.878906v-.664062c-1.558594-.558594-3.363282-.878906-5.292969-.878906zm0 0" fill="#fff" fill-opacity=".392157"/><path d="m50.277344 26.316406v.644532c0 .074218 0 .148437.007812.21875v-.644532c-.007812-.074218-.007812-.148437-.007812-.21875zm5.300781 5.953125c0 .070313-.003906.144531-.011719.21875v.644531c.007813-.070312.011719-.144531.011719-.21875zm-21.167969 17.519531c-.007812.109376-.011718.214844-.011718.324219 0 2.066407 1.496093 3.902344 3.851562 5.113281.292969-.078124.582031-.160156.867188-.246093-2.714844-1.128907-4.539063-3.019531-4.707032-5.191407zm0 0" fill-opacity=".235294"/><path d="m50.277344 25.726562v.589844c0 .070313 0 .144532.007812.21875v-.589844c-.007812-.070312-.007812-.144531-.007812-.21875zm5.300781 5.953126c0 .074218-.003906.148437-.011719.21875v.589843c.007813-.074219.011719-.148437.011719-.21875zm-.011719 17.199218c0 3.664063-4.71875 6.617188-10.582031 6.617188-5.707031 0-10.332031-2.796875-10.574219-6.324219-.007812.097656-.011718.195313-.011718.296875 0 3.664062 4.722656 6.613281 10.585937 6.613281s10.582031-2.949219 10.582031-6.613281zm0 0" fill-opacity=".235294"/><path d="m1600.004772 695.130505c-44.287112 0-79.952999 35.665888-79.952999 79.952999v20.076824c0 2.243881 0 4.369662.236198 6.613542v93.298182h-.236198v426.57346c-47.121487-16.888152-101.683209-26.572267-160.024097-26.572267-177.266546 0-320.048194 89.282817-320.048194 200.059646s142.781648 199.941547 320.048194 199.941547c177.266545 0 319.930095-89.164718 319.930095-199.941547v-513.376199c.236198-2.24388.354296-4.369661.354296-6.613542v-20.076824h-.354296v-179.982822c0-44.287111-35.665888-79.952999-79.952999-79.952999zm0 0" fill="none" stroke="#212121" stroke-linecap="square" stroke-linejoin="round" stroke-width="11.338583" transform="scale(.0330761)"/></svg>

<?xml version="1.0" encoding="UTF-8"?>
<svg xmlns="http://www.w3.org/2000/svg" xmlns:xlink="http://www.w3.org/1999/xlink" width="64px" height="64px" viewBox="0 0 64 64" version="1.1">
<defs>
<radialGradient id="radial0" gradientUnits="userSpaceOnUse" cx="450.908936" cy="189.579361" fx="450.908936" fy="189.579361" r="21.166656" gradientTransform="matrix(0.000000348341,-0.156265,-0.281277,-0.000000203077,102.276735,127.190659)">
<stop offset="0" style="stop-color:rgb(0%,0%,0%);stop-opacity:0.313726;"/>
<stop offset="0.222222" style="stop-color:rgb(0%,0%,0%);stop-opacity:0.27451;"/>
<stop offset="1" style="stop-color:rgb(0%,0%,0%);stop-opacity:0;"/>
</radialGradient>
<radialGradient id="radial1" gradientUnits="userSpaceOnUse" cx="450.908936" cy="189.579361" fx="450.908936" fy="189.579361" r="21.166656" gradientTransform="matrix(-0.000000348341,0.156265,0.281277,0.000000203077,-25.540237,-15.054964)">
<stop offset="0" style="stop-color:rgb(0%,0%,0%);stop-opacity:0.313726;"/>
<stop offset="0.222222" style="stop-color:rgb(0%,0%,0%);stop-opacity:0.27451;"/>
<stop offset="1" style="stop-color:rgb(0%,0%,0%);stop-opacity:0;"/>
</radialGradient>
<radialGradient id="radial2" gradientUnits="userSpaceOnUse" cx="450.908936" cy="189.579361" fx="450.908936" fy="189.579361" r="21.166656" gradientTransform="matrix(-0.000000348341,-0.156265,0.281277,-0.000000203077,-25.540237,127.190659)">
<stop offset="0" style="stop-color:rgb(0%,0%,0%);stop-opacity:0.313726;"/>
<stop offset="0.222222" style="stop-color:rgb(0%,0%,0%);stop-opacity:0.27451;"/>
<stop offset="1" style="stop-color:rgb(0%,0%,0%);stop-opacity:0;"/>
</radialGradient>
<radialGradient id="radial3" gradientUnits="userSpaceOnUse" cx="450.908936" cy="189.579361" fx="450.908936" fy="189.579361" r="21.166656" gradientTransform="matrix(0.000000348341,0.156265,-0.281277,0.000000203077,102.276733,-15.054965)">
<stop offset="0" style="stop-color:rgb(0%,0%,0%);stop-opacity:0.313726;"/>
<stop offset="0.222222" style="stop-color:rgb(0%,0%,0%);stop-opacity:0.27451;"/>
<stop offset="1" style="stop-color:rgb(0%,0%,0%);stop-opacity:0;"/>
</radialGradient>
<linearGradient id="linear0" gradientUnits="userSpaceOnUse" x1="255.323059" y1="233.5" x2="255.323044" y2="254.666656" gradientTransform="matrix(0.0267201,0,0,0.125012,24.930772,26.877567)">
<stop offset="0" style="stop-color:rgb(0%,0%,0%);stop-opacity:0.27451;"/>
<stop offset="1" style="stop-color:rgb(0%,0%,0%);stop-opacity:0;"/>
</linearGradient>
<linearGradient id="linear1" gradientUnits="userSpaceOnUse" x1="254" y1="-168.666672" x2="254" y2="233.5" gradientTransform="matrix(0.125012,0,0,0.125012,0,26.877566)">
<stop offset="0" style="stop-color:rgb(87.843138%,87.843138%,87.843138%);stop-opacity:1;"/>
<stop offset="1" style="stop-color:rgb(74.117649%,74.117649%,74.117649%);stop-opacity:1;"/>
</linearGradient>
<linearGradient id="linear2" gradientUnits="userSpaceOnUse" x1="254" y1="117.083344" x2="254" y2="-52.25" gradientTransform="matrix(3.779528,0,0,3.779528,0,812.59845)">
<stop offset="0" style="stop-color:rgb(96.078432%,96.078432%,96.078432%);stop-opacity:1;"/>
<stop offset="1" style="stop-color:rgb(87.843138%,87.843138%,87.843138%);stop-opacity:1;"/>
</linearGradient>
<linearGradient id="linear3" gradientUnits="userSpaceOnUse" x1="232.905685" y1="-126.333328" x2="232.833328" y2="191.166672" gradientTransform="matrix(0.125012,0,0,0.125012,23.814773,32.169112)">
<stop offset="0" style="stop-color:rgb(50.588238%,78.039217%,51.764709%);stop-opacity:1;"/>
<stop offset="1" style="stop-color:rgb(40.000001%,73.333335%,41.568628%);stop-opacity:1;"/>
</linearGradient>
</defs>
<g id="surface1">
<path style=" stroke:none;fill-rule:nonzero;fill:url(#radial0);" d="M 49.613281 56.066406 L 54.90625 56.066406 L 54.90625 53.421875 L 49.613281 53.421875 Z M 49.613281 56.066406 "/>
<path style=" stroke:none;fill-rule:nonzero;fill:url(#radial1);" d="M 27.121094 56.066406 L 21.832031 56.066406 L 21.832031 58.714844 L 27.121094 58.714844 Z M 27.121094 56.066406 "/>
<path style=" stroke:none;fill-rule:nonzero;fill:url(#radial2);" d="M 27.121094 56.066406 L 21.832031 56.066406 L 21.832031 53.421875 L 27.121094 53.421875 Z M 27.121094 56.066406 "/>
<path style=" stroke:none;fill-rule:nonzero;fill:url(#radial3);" d="M 49.613281 56.066406 L 54.90625 56.066406 L 54.90625 58.714844 L 49.613281 58.714844 Z M 49.613281 56.066406 "/>
<path style=" stroke:none;fill-rule:nonzero;fill:url(#linear0);" d="M 27.121094 55.40625 L 49.613281 55.40625 L 49.613281 58.714844 L 27.121094 58.714844 Z M 27.121094 55.40625 "/>
<path style=" stroke:none;fill-rule:nonzero;fill:url(#linear1);" d="M 31.753906 5.792969 C 17.828125 5.792969 6.613281 17.003906 6.613281 30.929688 C 6.613281 44.855469 17.828125 56.066406 31.753906 56.066406 C 45.679688 56.066406 56.890625 44.855469 56.890625 30.929688 C 56.890625 17.003906 45.679688 5.792969 31.753906 5.792969 Z M 31.753906 25.636719 C 34.683594 25.636719 37.046875 28 37.046875 30.929688 C 37.046875 33.863281 34.683594 36.222656 31.753906 36.222656 C 28.820312 36.222656 26.460938 33.863281 26.460938 30.929688 C 26.460938 28 28.820312 25.636719 31.753906 25.636719 Z M 31.753906 25.636719 "/>
<path style=" stroke:none;fill-rule:nonzero;fill:rgb(0%,0%,0%);fill-opacity:0.196078;" d="M 31.753906 56.066406 C 17.828125 56.066406 6.613281 44.855469 6.613281 30.929688 C 6.613281 30.847656 6.617188 30.765625 6.617188 30.683594 C 6.746094 44.496094 17.910156 55.574219 31.753906 55.574219 C 45.597656 55.574219 56.757812 44.496094 56.890625 30.683594 C 56.890625 30.765625 56.890625 30.847656 56.890625 30.929688 C 56.890625 44.855469 45.679688 56.066406 31.753906 56.066406 Z M 31.753906 56.066406 "/>
<path style=" stroke:none;fill-rule:nonzero;fill:rgb(100%,100%,100%);fill-opacity:0.588235;" d="M 31.753906 5.792969 C 17.828125 5.792969 6.613281 17.003906 6.613281 30.929688 C 6.613281 31.011719 6.617188 31.09375 6.617188 31.175781 C 6.746094 17.363281 17.910156 6.285156 31.753906 6.285156 C 45.597656 6.285156 56.757812 17.363281 56.890625 31.175781 C 56.890625 31.09375 56.890625 31.011719 56.890625 30.929688 C 56.890625 17.003906 45.679688 5.792969 31.753906 5.792969 Z M 31.753906 5.792969 "/>
<path style=" stroke:none;fill-rule:nonzero;fill:rgb(12.941177%,12.941177%,12.941177%);fill-opacity:1;" d="M 31.753906 5.605469 C 17.726562 5.605469 6.425781 16.902344 6.425781 30.929688 C 6.425781 44.957031 17.726562 56.253906 31.753906 56.253906 C 45.78125 56.253906 57.078125 44.957031 57.078125 30.929688 C 57.078125 16.902344 45.78125 5.605469 31.753906 5.605469 Z M 31.753906 5.980469 C 45.578125 5.980469 56.703125 17.105469 56.703125 30.929688 C 56.703125 44.753906 45.578125 55.878906 31.753906 55.878906 C 17.925781 55.878906 6.800781 44.753906 6.800781 30.929688 C 6.800781 17.105469 17.925781 5.980469 31.753906 5.980469 Z M 31.753906 5.980469 "/>
<path style=" stroke:none;fill-rule:nonzero;fill:rgb(100%,100%,100%);fill-opacity:0.588235;" d="M 14.847656 14.023438 C 13.4375 15.464844 12.214844 17.078125 11.207031 18.824219 C 10.199219 20.570312 9.414062 22.433594 8.871094 24.375 L 14.226562 25.8125 C 15.046875 22.847656 16.613281 20.136719 18.769531 17.941406 Z M 19.761719 18.9375 C 17.78125 20.960938 16.347656 23.449219 15.589844 26.175781 L 26.996094 29.234375 C 27.21875 28.511719 27.601562 27.847656 28.113281 27.292969 Z M 36.554688 32.164062 C 36.445312 32.523438 36.292969 32.871094 36.101562 33.199219 C 35.914062 33.523438 35.691406 33.828125 35.433594 34.105469 L 43.792969 42.464844 C 45.773438 40.441406 47.207031 37.949219 47.960938 35.21875 Z M 49.328125 35.585938 C 48.503906 38.550781 46.941406 41.261719 44.785156 43.460938 L 48.703125 47.375 C 50.113281 45.933594 51.335938 44.320312 52.34375 42.574219 C 53.355469 40.828125 54.136719 38.964844 54.679688 37.023438 Z M 49.328125 35.585938 "/>
<path style="fill-rule:nonzero;fill:url(#linear2);stroke-width:11.338583;stroke-linecap:round;stroke-linejoin:miter;stroke:rgb(20%,20%,20%);stroke-opacity:1;stroke-miterlimit:4;" d="M 960.026483 615.059407 C 782.759937 615.059407 639.978289 757.841055 639.978289 935.107601 C 639.978289 1112.374147 782.759937 1255.155795 960.026483 1255.155795 C 1137.293029 1255.155795 1279.956578 1112.374147 1279.956578 935.107601 C 1279.956578 757.841055 1137.293029 615.059407 960.026483 615.059407 Z M 960.026483 775.083504 C 1048.600706 775.083504 1120.05058 846.533378 1120.05058 935.107601 C 1120.05058 1023.799924 1048.600706 1095.131698 960.026483 1095.131698 C 871.33416 1095.131698 800.002386 1023.799924 800.002386 935.107601 C 800.002386 846.533378 871.33416 775.083504 960.026483 775.083504 Z M 960.026483 775.083504 " transform="matrix(0.0330761,0,0,0.0330761,0,0)"/>
<path style=" stroke:none;fill-rule:nonzero;fill:url(#linear3);" d="M 52.921875 22.992188 C 51.457031 22.992188 50.277344 24.171875 50.277344 25.636719 L 50.277344 26.300781 C 50.277344 26.375 50.277344 26.445312 50.285156 26.519531 L 50.285156 29.605469 L 50.277344 29.605469 L 50.277344 43.714844 C 48.71875 43.15625 46.914062 42.835938 44.984375 42.835938 C 39.121094 42.835938 34.398438 45.789062 34.398438 49.453125 C 34.398438 53.117188 39.121094 56.066406 44.984375 56.066406 C 50.847656 56.066406 55.566406 53.117188 55.566406 49.453125 L 55.566406 32.472656 C 55.574219 32.398438 55.578125 32.328125 55.578125 32.253906 L 55.578125 31.589844 L 55.566406 31.589844 L 55.566406 25.636719 C 55.566406 24.171875 54.386719 22.992188 52.921875 22.992188 Z M 52.921875 22.992188 "/>
<path style=" stroke:none;fill-rule:nonzero;fill:rgb(100%,100%,100%);fill-opacity:0.392157;" d="M 52.921875 22.992188 C 51.457031 22.992188 50.277344 24.171875 50.277344 25.636719 L 50.277344 26.300781 C 50.277344 24.832031 51.457031 23.652344 52.921875 23.652344 C 54.386719 23.652344 55.566406 24.832031 55.566406 26.300781 L 55.566406 25.636719 C 55.566406 24.171875 54.386719 22.992188 52.921875 22.992188 Z M 50.277344 29.605469 L 50.277344 30.269531 L 50.285156 30.269531 L 50.285156 29.605469 Z M 55.566406 31.589844 L 55.566406 32.253906 L 55.578125 32.253906 L 55.578125 31.589844 Z M 44.984375 42.835938 C 39.121094 42.835938 34.398438 45.789062 34.398438 49.453125 C 34.398438 49.5625 34.402344 49.671875 34.410156 49.78125 C 34.6875 46.273438 39.296875 43.5 44.984375 43.5 C 46.914062 43.5 48.71875 43.816406 50.277344 44.378906 L 50.277344 43.714844 C 48.71875 43.15625 46.914062 42.835938 44.984375 42.835938 Z M 44.984375 42.835938 "/>
<path style=" stroke:none;fill-rule:nonzero;fill:rgb(0%,0%,0%);fill-opacity:0.235294;" d="M 50.277344 26.316406 L 50.277344 26.960938 C 50.277344 27.035156 50.277344 27.109375 50.285156 27.179688 L 50.285156 26.535156 C 50.277344 26.460938 50.277344 26.386719 50.277344 26.316406 Z M 55.578125 32.269531 C 55.578125 32.339844 55.574219 32.414062 55.566406 32.488281 L 55.566406 33.132812 C 55.574219 33.0625 55.578125 32.988281 55.578125 32.914062 Z M 34.410156 49.789062 C 34.402344 49.898438 34.398438 50.003906 34.398438 50.113281 C 34.398438 52.179688 35.894531 54.015625 38.25 55.226562 C 38.542969 55.148438 38.832031 55.066406 39.117188 54.980469 C 36.402344 53.851562 34.578125 51.960938 34.410156 49.789062 Z M 34.410156 49.789062 "/>
<path style=" stroke:none;fill-rule:nonzero;fill:rgb(0%,0%,0%);fill-opacity:0.235294;" d="M 50.277344 25.726562 L 50.277344 26.316406 C 50.277344 26.386719 50.277344 26.460938 50.285156 26.535156 L 50.285156 25.945312 C 50.277344 25.875 50.277344 25.800781 50.277344 25.726562 Z M 55.578125 31.679688 C 55.578125 31.753906 55.574219 31.828125 55.566406 31.898438 L 55.566406 32.488281 C 55.574219 32.414062 55.578125 32.339844 55.578125 32.269531 Z M 55.566406 48.878906 C 55.566406 52.542969 50.847656 55.496094 44.984375 55.496094 C 39.277344 55.496094 34.652344 52.699219 34.410156 49.171875 C 34.402344 49.269531 34.398438 49.367188 34.398438 49.46875 C 34.398438 53.132812 39.121094 56.082031 44.984375 56.082031 C 50.847656 56.082031 55.566406 53.132812 55.566406 49.46875 Z M 55.566406 48.878906 "/>
<path style="fill:none;stroke-width:11.338583;stroke-linecap:square;stroke-linejoin:round;stroke:rgb(12.941177%,12.941177%,12.941177%);stroke-opacity:1;stroke-miterlimit:4;" d="M 1600.004772 695.130505 C 1555.71766 695.130505 1520.051773 730.796393 1520.051773 775.083504 L 1520.051773 795.160328 C 1520.051773 797.404209 1520.051773 799.52999 1520.287971 801.77387 L 1520.287971 895.072052 L 1520.051773 895.072052 L 1520.051773 1321.645512 C 1472.930286 1304.75736 1418.368564 1295.073245 1360.027676 1295.073245 C 1182.76113 1295.073245 1039.979482 1384.356062 1039.979482 1495.132891 C 1039.979482 1605.90972 1182.76113 1695.074438 1360.027676 1695.074438 C 1537.294221 1695.074438 1679.957771 1605.90972 1679.957771 1495.132891 L 1679.957771 981.756692 C 1680.193969 979.512812 1680.312067 977.387031 1680.312067 975.14315 L 1680.312067 955.066326 L 1679.957771 955.066326 L 1679.957771 775.083504 C 1679.957771 730.796393 1644.291883 695.130505 1600.004772 695.130505 Z M 1600.004772 695.130505 " transform="matrix(0.0330761,0,0,0.0330761,0,0)"/>
</g>
</svg>
